src/assets/icons/file-import.svg

<svg width="14" height="14" viewBox="0 0 14 14" fill="none" xmlns="http://www.w3.org/2000/svg">
<g id="file-import">
<g clip-path="url(#clip0_156_4508)">
<path id="Vector" fill-rule="evenodd" clip-rule="evenodd" d="M3.88889 2.33335C3.88889 1.15563 4.85006 0.194458 6.02778 0.194458H9.13889C9.2936 0.194458 9.44197 0.255916 9.55137 0.365312L13.8291 4.64309C13.9385 4.75249 14 4.90086 14 5.05557V11.6667C14 12.8444 13.0388 13.8056 11.8611 13.8056H6.02778C4.85006 13.8056 3.88889 12.8444 3.88889 11.6667V10.8889C3.88889 10.5667 4.15006 10.3056 4.47222 10.3056C4.79439 10.3056 5.05556 10.5667 5.05556 10.8889V11.6667C5.05556 12.2001 5.49439 12.6389 6.02778 12.6389H11.8611C12.3945 12.6389 12.8333 12.2001 12.8333 11.6667V5.6389H9.13889C8.81672 5.6389 8.55556 5.37773 8.55556 5.05557V1.36112H6.02778C5.49439 1.36112 5.05556 1.79996 5.05556 2.33335V6.22224C5.05556 6.5444 4.79439 6.80557 4.47222 6.80557C4.15006 6.80557 3.88889 6.5444 3.88889 6.22224V2.33335ZM9.72222 2.18608V4.47224H12.0084L9.72222 2.18608ZM6.82915 5.80976C6.60134 5.58195 6.23199 5.58195 6.00419 5.80976C5.77638 6.03756 5.77638 6.40691 6.00419 6.63471L7.34171 7.97224H0.583333C0.261167 7.97224 0 8.2334 0 8.55557C0 8.87773 0.261167 9.1389 0.583333 9.1389H7.34171L6.00419 10.4764C5.77638 10.7042 5.77638 11.0736 6.00419 11.3014C6.23199 11.5292 6.60134 11.5292 6.82915 11.3014L9.16248 8.96805C9.27638 8.85415 9.33333 8.70486 9.33333 8.55557C9.33333 8.47647 9.31759 8.40106 9.28907 8.33228C9.2606 8.26348 9.21841 8.19902 9.16248 8.14309L6.82915 5.80976Z" fill="black"/>
</g>
</g>
<defs>
<clipPath id="clip0_156_4508">
<rect width="14" height="14" fill="white"/>
</clipPath>
</defs>
</svg>

<svg xmlns="http://www.w3.org/2000/svg" fill="none" viewBox="0 0 14 14"><g clip-path="url(#a)"><path fill="#000" fill-rule="evenodd" d="M3.889 2.333c0-1.177.961-2.139 2.139-2.139h3.11c.156 0 .304.062.413.171l4.278 4.278c.11.11.171.258.171.413v6.61a2.144 2.144 0 0 1-2.139 2.14H6.028a2.143 2.143 0 0 1-2.14-2.14v-.777a.583.583 0 1 1 1.168 0v.778c0 .533.438.972.972.972h5.833a.977.977 0 0 0 .972-.972V5.639H9.14a.583.583 0 0 1-.583-.583V1.36H6.028a.977.977 0 0 0-.972.972v3.89a.583.583 0 0 1-1.167 0zm5.833-.147v2.286h2.286zM6.83 5.81a.583.583 0 1 0-.825.825l1.338 1.337H.583a.583.583 0 1 0 0 1.167h6.759l-1.338 1.337a.583.583 0 0 0 .825.825l2.333-2.333a.58.58 0 0 0 0-.825z" clip-rule="evenodd"/></g><defs><clipPath id="a"><path fill="#fff" d="M0 0h14v14H0z"/></clipPath></defs></svg>
